X:1046
T:Säg mennes int' du mi
S:Älvdalspolska efter Einar Britt
Z:[[http://www.bluerose.karenlmyers.org/IncipitsPolskaAlvdalen1.html|Karen Myers (#1046)]]
M:3/4
L:1/8
R:Polska
O:Älvdalen, Dalarna
K:Dm
A |: (3A2 (d2 ^c2) A7/4c1/4 | (3e2 (g2 e2) f7/4f1/4 | (3f2 a2 g2 e>g |1 f2 e2- eA :|2 f2 e4 |
|: (3e2 (a2 g2) e>g | (3f2 f2 d2 e2 | (3e2 (a2 g2) e>g | (3f2 (f2 d2) e>e | (3e2 (a2 g2) e>g |1 f2 e4 :|2 e2 d4 |]
